X:1
T:Melancolie
T:Mélancolie
T:Francis Poulenc
C:Francis Poulenc
%%score { ( 1 3 6 ) | ( 2 4 5 7 ) }
L:1/8
Q:1/4=60
M:4/4
K:Db
V:1 treble nm="Piano" snm="Pno."
V:3 treble 
V:6 treble 
V:2 bass 
V:4 bass 
V:5 bass 
V:7 bass 
V:1
"^Très modéré"!p! e2 | !>!e2 !>!d/!>!c/!>!B/!>!A/ !>!e2[Q:1/4=50] !>!e2 | %2
[Q:1/4=60] !>!e3 !>!a !>!d2 !>!c2 | !>!B2 !>!c/!>!B/!>!E/!>!F/ !>!=G2 !>!A2 | %4
 !>!B6[Q:1/4=50] !>!e2 |[Q:1/4=60] !>!e2 !>!d/!>!c/!>!B/!>!A/ !>!e2[Q:1/4=50] !>!e2 | %6
[Q:1/4=60] !>!e3 !>!a !>!d2 !>!c2 | !>!=B2!<(! !>!c/!>!=d/!>!e/!>!f/!<)!!p! !>!=g2!pp! !>!c2 | %8
 !arpeggio!!>![=B,=G=d]6[Q:1/4=50]!mf![Q:1/4=70] !>!G2 |!mp! =G2 F/E/=D/C/ G2 G2 | %10
!<(! =d3 e =G2 _G2!<)! |!f! d2 c/B/A/G/ f2 g2 |!>(! a3 __b c2 ^B2!>)! || %13
[K:D]!p![Q:1/4=60] !>!c2 !>!B/!>!c/!>!d/!>!e/ !>!f2 !>!A2 | %14
!>(! !>!B6[Q:1/4=50]!>)!!ppp! !>!^G2[Q:1/4=40] | %15
[Q:1/4=60]"^Tempo"!p! !>!e2 !>!d/!>!c/!>!B/!>!A/ !>!e2[Q:1/4=50] !>!e2 | %16
[Q:1/4=60] !>!e3 !>!a !>!d2 !>!c2 |!mf![Q:1/4=66] !arpeggio![B,^DB]2 F/^G/A/B/ c2 ^B2 | %18
 !arpeggio![B,=DF=B]6 d2 |[Q:1/4=70]"^Presser un peu" f2 e/d/c/B/ f2 f2 | c'3 d' f2 D2 | %21
 f2{/ef} e/d/c/B/ f2 f2 | c' e'2 d' f2!p! F2 | A2"_cresc." ^G/F/E/D/ c2 d2 | e2 d/c/B/A/ f2 a2 | %25
 c'2 x2!>(! (3z [ee'][dd'] (3[cc'][Bb][Aa]!>)! |!mp! [^E^e]!>(![Ff] c'2 z b =af!>)! | %27
!p![Q:1/4=60] !>![Cc]2 !>!d4 !>!^G2 |[M:3/4] !>![B,A]2[Q:1/4=50]"^Céder à peine" !>!A2 !>!=G2 | %29
 !>!=F4!ppp! [=F,B,]2 | %30
[M:4/4][Q:1/4=88]"^Un peu plus vite"!p![I:staff +1] [E,A,C]6[I:staff -1] !>![A,EA]2 | %31
[M:3/4][I:staff +1] [E,A,C]4 [F,A,^D]2 |[I:staff -1] [G,=CE]2 [A,CF]2 [_B,_EG]2 | %33
 [A,=CF]4 [_G_B_e]2 | [_E_GA]4 [DG_B]2 | =B2 =c2[Q:1/4=70]!>(! [_A=f]2[Q:1/4=60]!>)! || %36
[K:Db]!p![Q:1/4=70]"^Animer beaucoup mais très progressivement" [=G=e]4 !>!f2 | %37
 [B=g]4[Q:1/4=75] a/4b/4a/4b/4a/4b/4g/4a/4 | !>![=ec']2 !>![db]2 !>![Ba]2 | %39
[Q:1/4=80] !>!=g4 !>!f2 | [_E_GBe]4[Q:1/4=85] [fbd'f']2 | [egbe']4 [FBdf]2 | %42
[Q:1/4=90] !>!g2 !>!a2 !>!f2 | !>![_E_e]2 !>![Dd]2 !>![Ff]2 | !>![D=GBe]4 !>!f'2 | !>!e'4 !>!F2 | %46
 !>!_G2 !>!A2 !>!__B2 |!p!!>(! !>!=B2!>)!!p! !tenuto!c z x2 | z/ =G,/B,/D/ =E/=G/B/d/!f! !>!f2 | %49
 !>!=g4!p!"^♯"!<(! T^g/4^a/4g/4a/4g/4a/4^^f/4g/4!<)! ||[K:E]!f! !>!b2 !>!^a2 !>!g2 | %51
 !>!f4 !>![Gg]2 | [=Acef]4 !>![c'g']2 |!f! z/!mp! f/c'/c/ g/F/c/C/ !>!G2 | %54
 !>![A,CA]2 !>![Bdb]2 !>!g2 | !>![Ff]2 [=EB=e]2 !>![B,EG]2 | [^A,DF]4 [Beg]2 | %57
 [^Adf]4 !>![be'g']2 | !>![a=c'=f'a']4 !>![=ff']2 | %59
!>(! !tenuto![^eb]2 !tenuto![d=c']2 !tenuto![Ad]2!>)! | %60
[M:5/4]!p![Q:1/4=90]"^Très animé" B2{/A-B} A/=G/F/^D/ E/G/=d/c/ B2 ^A2 | %61
!mf! !>!B2{/A-B} A/=G/B/=E/ =d/G/B/=g/ !>!f2 !>!e2 |[M:4/4]!f! !>!f2 [F^Bg]4 !>!^e2 | %63
[M:3/4] [=B^^f]4 !>!^e2 | !>!f2!>(! !>!b2!>)!!mp! !>!g'2 | !>!f'4!f![Q:1/4=90] !>!c2 | %66
!f! E3[Q:1/4=80]!>(! ^E G>=G |[M:4/4][Q:1/4=70]"^Toujours au mouv't" =F2 E2!>)!!mf! ^F2 G2 | %68
[M:3/4]!mp! G4[Q:1/4=50]"^Céder" [^B,^E]2 |!p! [=B,=E=G]4!p![Q:1/4=80]"^Céder encore" [^A,D]2 | %70
 [F,DF]6 ||[K:C][Q:1/4=95]"^a T. vivo très librement"!p! T_e'4 Td'2 | Tc'2 T_b2 T_a2 | %73
!<(! T^f/4"^♯"^g/4f/4g/4f/4g/4f/4g/4f/4g/4f/4g/4f/4g/4f/4g/4 Td/4"^♭"_e/4d/4e/4d/4e/4d/4e/4!<)! | %74
 T=f4!<(! (11:8:11d/4f/4_a/4c'/4!8va(! e'/4g'/4_b'/4d''/4c''/4_a'/4!breath!f'/4!<)!!8va)! | %75
!f! _e4!f! d2 |!f! !>!c2!mf! !>!_B2!mp! !>!=A2 | %77
!p! ^F4 D2[Q:1/4=90]"^Céder"[Q:1/4=85][Q:1/4=80]"^beaucoup" | %78
!pp! ^G4 D2[Q:1/4=75]"^pour"[Q:1/4=70]"^revenir"[Q:1/4=65]"^au" || %79
[M:4/4]!p![Q:1/4=60]"^Tempo I" !>!d2 !>!c/!>!B/!>!A/!>!G/ !>!d2[Q:1/4=50] !arpeggio!!>![Dd]2 | %80
[Q:1/4=60] !>!d3 !>!g !>!c2 !>!B2 | !>!A2 !>!B/!>!A/!>!D/!>!E/ !>!^F2 !>!G2 | %82
 !>!A6[Q:1/4=50] !>!d2 |[Q:1/4=60]!p! !>!a2 !>!g/!>!f/!>!e/!>!d/ !>!^c2 !>!d2 | %84
 !>!f3 !>!c' !>!_b2!f! F2 | !>!_B2 !>!_A/!>!G/!>!F/!>!_E/ !>!B2 !>!_e2 | !>!_e6[Q:1/4=50] !>!_A2 || %87
[K:Db]!p![Q:1/4=60] !>!A2 !>!G/!>!F/!>!E/!>!D/ !>!A2 !>!A2 | !>!A3 !>!d !>!G2 !>!F2 | %89
 !>!E2!<(! !>![DF]/!>![E=G]/!>![GB]/!>![Bd]/ !>!f2!<)!!mp! !>!_f2 | !arpeggio!!>![E_GBe]6!pp! x2 | %91
!mf! !>!B2{/A-B} !>!A/!>!G/!>!F/!>!__E/ !>!B2[Q:1/4=65] !>!B2 |!pp! !>!f3 !>!g !>!B2!mf! !>!G2 | %93
[M:2/4]"_cresc." !>!B2{/A-B} !>!A/!>!G/!>!F/!>!__E/ | %94
[M:4/4]!f![Q:1/4=70] !>!d2 !>!c/!>!B/!>!A/!>!G/ !>!f2 !>!g2 | %95
 !>!a2 !>!g/!>!f/!>!e/!>!d/ !>![Bb]2 !>![dd']2 | %96
!f! [__eg__e']2 x2!>(! (3z [_e_e'][dd'] (3[Bb][Aa][Gg]!>)! |!p! [Ff][Gg] [Bb]3 [Aa] [Gg][Ff] | %98
!p! !>![B,B]2 =d/B/G/=D/ z/[Q:1/4=50]"^Cédar"!>(! !>!B,/!>!_D/!>!G/[Q:1/4=30] !>!__B2!>)! | %99
[M:3/4]!p![Q:1/4=50]"^Plus lent mais strictement au même mouvement jusqu'à la fin" !>!e2 !>!d2 !>!F2 | %100
 !>!A4 =F/8G/8F/8G/8F/8G/8F/8G/8F/8G/8=E/4F/4=f/4 | !>!e2 !>!d2 !>!_c2 | [EB]4 [__EA]2 | [DF]4 G2 | %104
 [F__Bdf]4 [GAdg]2 | [f__be'f']6 |!8va(! [__b'_f'']6!8va)! |[Q:1/4=50]"^Sans ralentir" [__b_f']6 | %108
!pp! [=FA]6 |!pppp! [fd'f'__b']6 |] %110
V:2
 z2 |!ped! z/ A,,/E,/G,/ B,/-E,/-G,/-B,/- D2 C/B,/A,/E,/!ped-up! | %2
!ped! z/ A,,/D,/F,/ F,/A,/D/F/ A2 A,2!ped-up! | %3
!ped! z/ E,,/B,,/-E,/- A,=G,!ped-up!!ped! A,,2!ped-up!!ped! E,2!ped-up! | %4
!ped! z/ E,,/B,,/E,/ A,/B,,/E,/A,/ B,/A,/D/B,/ =G,E,!ped-up! | %5
!ped! z/ A,,/E,/_G,/ B,/-E,/-G,/-B,/- D2 C/B,/A,/E,/!ped-up! | %6
!ped! z/ A,,/D,/F,/ F,/A,/D/F/ A2 A,2!ped-up! | %7
!ped! z/ =G,,/A,/F,/ =D,A,,!ped-up!!p!!ped! z/ A,,/^F,/D,/!ped-up!!ped! A,2!ped-up! | %8
!ped! z/ =D,/=B,/=G,/ =D/B,/=G/D/[K:treble] =B/=G/=d/B/!ped-up!!ped! B2!ped-up! | %9
[K:bass]!p!!ped![I:staff -1] C/=G,/C/A,/[I:staff +1] C,A,!ped-up!!ped! z/[I:staff -1] =B,/D/=G,/!ped-up!!ped! =B,2!ped-up! | %10
!ped![I:staff +1] z/!<(![I:staff -1] =B,/=G/=D/ =G,/EE/[I:staff +1] z/[I:staff -1] _B,/E/F,/[I:staff +1] x2!ped-up!!<)! | %11
!mp!!ped! z/[I:staff -1] _G/B/D/[I:staff +1] z2!ped-up!!ped! z/[I:staff -1] B/d/F/ B2!ped-up! | %12
!ped![I:staff +1] z/[I:staff -1] A,/!>(!__E/A/[I:staff +1] z/[I:staff -1] __B/__b/e/[I:staff +1] z/[I:staff -1] G/B/_E/[I:staff +1] x2!ped-up!!>)! || %13
[K:D]!p!!ped! z2 D/C/B,/A,/!ped-up!!ped! D,,2 F,2!ped-up! |!ped! F,2 ^G2 ^E2!ped-up! =E,2 | %15
!ped! z/ A,,/E,/G,/ B,/E,/-G,/-B,/- D2 C/B,/A,/E,/!ped-up! | %16
!ped! z/ A,,/D,/F,/ F,/A,/D/F/ A2 A,2!ped-up! | %17
!p!!ped! z/[I:staff -1] A,/B,/^D/[I:staff +1] x2 z/[I:staff -1] F/A/D/- D2!ped-up! | %18
!ped![I:staff +1] z/[I:staff -1] A,/B,/D/ D2[I:staff +1] z/[I:staff -1] D/F/^A/[I:staff +1] z/[I:staff -1] F/=A/D/!ped-up! | %19
!ped![I:staff +1] z/[I:staff -1] ^A,/D/F/ !arpeggio![DF^A]2!ped-up!!ped![I:staff +1] z/[I:staff -1] F/=A/d/ c/B/A/F/!ped-up! | %20
!ped![I:staff +1] z/[I:staff -1] ^A,/D/F/ D/F/^A/d/[I:staff +1] z/[I:staff -1] =A/d/F/[I:staff +1] x2!ped-up! | %21
!ped! z/[I:staff -1] F/^A[I:staff +1] x2!ped-up!!ped! z/[I:staff -1] F/=A/d/ c/B/A/F/!ped-up! | %22
!ped![I:staff +1] z[I:staff -1] f3[I:staff +1] z/[I:staff -1] =A/d/F/[I:staff +1] z/[I:staff -1] =A,/D/F,/!ped-up! | %23
!p!!ped![I:staff +1] z/[I:staff -1] A,/D/F/"_cresc." [B,E]2[I:staff +1] z/[I:staff -1] F/A/D/ !arpeggio![DF]2!ped-up! | %24
!ped![I:staff +1] z/[I:staff -1] F/A/D/ !arpeggio![DFA]2[I:staff +1] z/[I:staff -1] A/-d/-F/ [Ad]2!ped-up! | %25
!mp!!ped![I:staff +1] x2[K:treble]!mf![I:staff -1] d'/f/^a/d/!mp!!>(! =a2[I:staff +1][K:bass][I:staff -1] f2!ped-up!!>)! | %26
!p!!ped![I:staff +1] z[I:staff -1] [^Ad][I:staff +1] z/[I:staff -1] f/^a/c/[I:staff +1] z/[I:staff -1] d/f/B/- [Bd]2!ped-up! | %27
!p!!ped![I:staff +1] z/ F,/^A,/D/[I:staff -1] F/^A/F/D/[I:staff +1] z/[I:staff -1] B,/F/D/[I:staff +1] z/[I:staff -1] D/^E/B,/!ped-up! | %28
[M:3/4]!ped! =E/F,/A,/C/[I:staff +1] z/[I:staff -1] C/E/A,/[I:staff +1] z/[I:staff -1] C/E/G,/ | %29
 A,4!ped-up![I:staff +1] x2 |[M:4/4]!mf! x6 x2 |[M:3/4] x4 x2 | %32
 A,,A,,/A,,/ ^D,,D,,/D,,/ =C,,C,,/C,,/ | _E,,E,,/E,,/ _E,E,/E,/ _DD/D/ | %34
 =CC/C/ __B,B,/B,/ _A,A,/A,/ | D,D,/D,/ _A,,A,,/A,,/ [_D,,,_D,,]2 || %36
[K:Db]!ped! z/ =E,/=G,/B,/[I:staff -1] D/=E/=G/B/!ped-up!!ped![I:staff +1] [A,D]/[A,D]/A,/D,/!ped-up! | %37
!ped! [B,=E]4!ped-up![K:treble]!ped! [Ad]2!ped-up! |!ped! [=Gd]2 [=EB]2 [DG]2!ped-up! | %39
!ped! [B,=E]4!ped-up![K:bass] [A,D]2 |!ped! z E,, B,,G,[K:treble] [GBd]2!ped-up! | %41
!ped! [EGB]4!ped-up!!ped! [G,B,D]2!ped-up! |[K:bass]!ped! z2 G,2 C2!ped-up! | %43
!ped! z/!<(! A,,/D,/F,/ =G,/A,/B,/C/!ped-up!!<)!!p! D2 |!p!!ped! z2 E,4[K:treble]!ped-up! | %45
!ped! [=Gd]4[K:bass] x2!ped-up! |!ped! z2 G,2 __B,2 | C2!ped-up! G z!mf!!ped! !>!F,2!ped-up! | %48
!ped! !>!=E,4!ped-up![K:treble]!mp!!ped! [A,DF]2!ped-up! | %49
!ped! [=G,D=E]4!ped-up!!ped! [=B,=E^G]2!ped-up! || %50
[K:E]!ped! [DEGB]2!ped-up!!ped! [CEG]2!ped-up!!ped! [B,E]2!ped-up! |!ped! [^A,E]6!ped-up! | %52
[K:bass]!ped! z/ C,/E,/F,/ A,/C/E/F/ x2 |!mf! x4 z/[I:staff -1] A,/C/E/!ped-up! | %54
!ped![I:staff +1] [B,,,B,,-]2 A,2 [DG]2!ped-up! |!ped! z2 [G,B,]2!ped-up!!ff! x2 | %56
!ped! z/!>(! E,/^A,/C/[I:staff -1] D/E/G/d/!>)!!f![I:staff +1] F,2 | F4[K:treble] f2!ped-up! | %58
[K:bass]!ped! B,,,/B,,/ B,,/=F,/!<(! A,/B,/=C/=D/[I:staff -1] E/=F/^F/A/!ped-up!!<)! | %59
[I:staff +1][K:treble] !tenuto!^d2 !tenuto!A2 !tenuto!B,2 | %60
[M:5/4][K:bass]!ped! x2!ped-up!!ped! =DC!ped-up!!ped! B,2!ped-up!!ped! z/ E,/F,/=G,/ ^A,/B,/C/=D/!ped-up! | %61
!ped! z2!ped-up!!ped! =DC!ped-up!!ped! B,2!ped-up!!ped! z2 [A,C=G]2!ped-up! | %62
[M:4/4]!ped! z2 =D,/G,/^A,/^B,/ ^^C/^D/^E/!ped!^^F/!ped-up! x2 | %63
[M:3/4]!ped! ^^F,/^A,/B,/C/ =D/E/^E/^^F/!ped-up!!ped! G2 | x2!ped-up! %64
!ped! ^D2 F2[K:treble] !tenuto![^EBd]2!ped-up! |!ped! [E^Ac]6!ped-up! | %66
[K:bass]!mp![I:staff -1] [^A,C]6 |[M:4/4] [=G,C]4!p![I:staff +1] [F,C]2 [F,^B,]2 | %68
[M:3/4] [^E,C]4 C2 | C,4 ^B,,2 | ^A,,2 =A,,4 || %71
[K:C][K:treble]!pp!!ped! c'/^f/d/c/ D/c/f/c'/ z/ c'/f/d/!ped-up! | %72
!ped! _a/_e/c/c/ D/c/e/e/ z/ e/c/A/!ped-up! | %73
!ped!!<(! c/^F/E/C/[K:bass] D,/C/^F/ z/[K:treble] z/ c/F/D/!ped-up!!<)! | %74
!pp!!ped! c/_A/D/C/[K:bass] D,/C/[I:staff -1]D/c/[I:staff +1] x2!ped-up! | %75
!mp!!ped! CD, (3^F,CD x2 |!ped-up! _B,2 C2 D2 | %77
!pp!!ped! (3z [^F,C][^G,D] (3z [F,C][G,D] (3z [F,C][G,D]!ped-up! | %78
 (3z [^F,C][^G,D] (3z [F,C][G,D] (3z !tenuto!F,!tenuto!C || %79
[M:4/4]!ped! z/ D,/=G,,/F,/ A,/D,/F,/-A,/- [F,A,C]2!ped-up! B,/A,/G,/G,,/ | %80
!ped! z/ G,,/C,/E,/ E,/G,/C/E/ G2 x2!ped-up! | %81
!ped! z/ A,,/D,,/D,/ G,^F,!ped-up!!ped! G,,2 ^C,2!ped-up! | %82
!ped! z/ B,,/D,/G,/ C/D,/G,/C/ E/C/E/G/ ^F2!ped-up! | %83
!ped! z/ G,,/F,/B,/ z2 !>!B,2 A,/G,/F,/D,/!ped-up! | %84
!ped! z/ _B,,/F,/_A,/ C/_E/_A D2!mp! z/ F,/_A,/D/!ped-up! | %85
!ped! z/ _B,,/C,/_D,/ _E,/F,/G,/_A,/ !>!A,2 G,E,!ped-up! | %86
!ped! x2 !>!_E,2 !>!__B,2!ped-up!!ped! _G,2!ped-up! || %87
[K:Db]!ped! z2 D,/A,,/G,/D,/ F,2 E,D,!ped-up! |!ped! z/ B,/D/D,/ A,/-B,/- [A,B,] x4!ped-up! | %89
!ped! x2 =G,/B,/D/F/ =G2 _F2!ped-up! |!ped! !arpeggio![E,_G,D]6!ped! x2!ped-up! | %91
!mp!!ped! z/ A,,/__E,/G,/ B,2!ped-up!!ped! F2!>(! E/D/B,/G,/!ped-up!!>)! | %92
!ped! z/ A,,/__E,/G,/ B, __E D2 E,2!ped-up! |[M:2/4]!ped! z/ A,,/__E,/G,/ B,2!ped-up! | %94
[M:4/4]!ped! z D,G,B, !>!D2 C/B,/A,/G,/!ped-up! | %95
!ped! z D, G,B,[K:treble] !>!A2!>(! G/F/E/!>)!!p!D/!ped-up! | %96
[K:bass]!mp!!ped! x2[K:treble][I:staff -1] __e'/b/g/__e/!>(! _e2[I:staff +1] x2!ped-up!!>)! | %97
[K:bass]!p!!ped! z/ =D,/G,/B,/ =D/[I:staff -1]G/B/[I:staff +1]D/ _D2 B,2!ped-up! | %98
!ped! z (7:4:7A,,/4=D,/4G,/4B,/4[I:staff -1] =D/4G/4B/4[I:staff +1][K:treble] !>!f2[K:bass] G,4!ped-up! | %99
[M:3/4]!ped! z2 A,,4!ped-up! |!ped! z2 !>!A,2[K:treble] .G.G,!ped-up! |[K:bass]!ped! z2 A,,4 | %102
 _C2 __E2 F2!ped-up! |!ped! [F,__B,]4 [G,A,]2!ped-up! |!ped! [F,D]4 [__B,E]2 | %105
[K:treble] [Ed]6!ped-up! |!ped! [__a__b]6 | [_Fd]2 [E_f]4!ped-up! |[K:bass]!ped! [A,D]6 | %109
[K:treble] [Aa]2 z2 z2!ped-up! |] %110
V:3
 x2 | z/ B,/D/G/ !arpeggio![DG]2 z/ E/G/B/{/G-} G2 | %2
 z/[I:staff +1] F,/A,/E/[I:staff -1] D/-A/- [DA] z/ F/A/D/ z/ F/A/C/ | %3
 z/ A,/D/F/ !arpeggio![DF]2 z/ =B,/=D/=G,/ z/ D/F/A,/ | %4
 z/ F,/A,/_D/ F/B,/D/F/ A/F/B/A/ z/ =G/B/E/ | z/ B,/D/_G/ !arpeggio![DG]2 z/ E/G/B/{/G-} G2 | %6
 z/[I:staff +1] F,/A,/E/[I:staff -1] D/-A/- [DA] z/ F/A/D/ z/ F/A/C/ | %7
 z/ =B,/F/=D/ !arpeggio![CF]2 z/!p! C/A/^F/ z/ D/F/C/ | %8
 z/!>(! =B,/=G/=D/ =B/G/=d/B/ =g/d/=b/!>)!!pp!g/ z/!pp! B,/D/=G,/ | x8 | x8 | x8 | x8 || %13
[K:D] z/ B,/[CG]/E/ G2 c2 x2 | z/ D/F/B,/ z/"^Céder à peine" B,/D/F/ z/ B,/D/^E/ z/ B,/D/^G/ | %15
 z/ B,/D/=G/ [DG]2 z/ E/G/B/{/G-} G2 | %16
 z/[I:staff +1] F,/A,/E/!<(![I:staff -1] D/A/ [DA] z/ F/A/D/ z/ F/A/C/!<)! | x8 | x8 | x8 | x8 | %21
 x8 | x8 | x8 | x8 | x8 | x8 | x8 |[M:3/4] x6 | x6 |[M:4/4] x8 |[M:3/4] x6 | x6 | x6 | x6 | %35
 [=C^F]4 _A/[=F_d]/A/F/ ||[K:Db] x4 A/[Af]/d/F/ | z/ =E/=G/B/ d/=e/=g/b/ f2 | %38
 z/ =e/=g/b/ z/ d/e/g/ z/ B/d/e/ | z/ d/=e/B/ =E/=G/B/d/ [FBd]2 | %40
 x D/F/[I:staff +1] F,/B,/[I:staff -1]D/F/ z/ f/b/d'/ | z/ e/B/d/ G/B/D/G/ z/ F/B/d/ | %42
 [Bg]/[G__e]/[__EB]/[__B,G]/ [ea]/[Gc]/[Ac]/[CG]/ [cf]/[FA]/[Fc]/[CA]/ | %43
 A/E/A/F/ A/D/F/A/ A/F/A/d/ | z/ E/=G,/D/ E/=G/d/e/ z/ a/d'/f/ | z/ e/f/d/ F/E/D/=G,/ z/ G,/D/E/ | %46
 z/ __B,/__E/_F/ z/ E/F/G/ z/ E/F/G/ | z/ __E/_F/G/ x4 | x4 z/ F/A/d/ | z/ d/=e/B/ d/=G/B/=E/ x2 || %50
[K:E] z/ B/e/g/ z/ ^A/e/g/ z/ c/e/G/ | c/F/c/C/ F/F,/C/F/ x2 | z/ =A,/C/E/ F/A/c/e/ z/ g/e'/c'/ | %53
 [Ae]4 x2 | ^E/A,/C/E/ ^e/B/d/e/ d/A/^B/d/ | =B/F/G/B/ x4 | x4 z/ G/B/e/ | %57
 z/!mp! E/^A/c/ d/e/g/d'/ z/ g/b/e'/ | z2 a4 | x6 |[M:5/4] B/B,/E x8 | B/B,/E x4 z/ =G/B/=d/ x2 | %62
[M:4/4] c/F/c/C/ x4 ^B/^E/-B/G/ |[M:3/4] E4 z/ B/=d/^E/ | z/ B/-^d/-f/- [Bdf]2 [gd']2 | %65
 c'/!>(!f/^a/^A/ c'/c/e/!>)!!p!!tenuto!=g/ z/!mp! C/E/=G/ | x6 |[M:4/4] x8 |[M:3/4] x6 | x6 | %70
 C2 !fermata!^B,4 ||[K:C] x6 | x6 | x6 | x71/15!8va(! x77/60!8va)! | (3z!mp! _AC x2 (3z!mp! ^FA | %76
 (3z!mp!!>(! ^F_A (3z!p! FA (3z!p! CD!>)! | x6 | x6 || %79
[M:4/4] z/ C/F/A/ !arpeggio![DF]2 z/ D/F/A/ F/G/F/B,/ | %80
 G/[I:staff +1]E,/G,/D/[I:staff -1] C/-G/- [CG] z/ E/G/C/ z/ E/G/B,/ | %81
 z/ C/E/G,/ [CE]2 z/ B,/D/^F,/ z/ ^A,/E/G,/ | z/ G,/C/E/ G/C/E/G/ c/G/c/e/ z/ ^F/A/D/ | %83
 z/ B,/E/G/ A/G/F/E/ z/ F/-G/-B/- [FGB]2 | c/!<(!C/_E/_A/ c/_e/c'/_a/ z/ d/f/_B/!<)! x2 | %85
 z/ _D/F/_B,/ !arpeggio![B,DF]2 z/ D/-F/-B,/- [B,DF]2 | %86
 z/!>(! _B/_G/_D/ z2 z/ D/_E/__B/ z/ C/!tenuto!_E/!tenuto!_A,/!>)! || %87
[K:Db] z/ _C/E/G,/ C2 z/ C/-E/A,/- [A,CD]2 | x4 z/ B,/-D/-G,/- [G,B,D]2 | %89
 z/ =G,/D/E/ x2 z/ =G/-B/-d/- [GBd]2 | z/!p! d/B/G/!<(! !>!B,/!>!C/!>!D/!>!E/!<)!!p! !>!F2 !>!G2 | %91
 z/ B,/__E/G/ x2 z/ B,/-D/-G/- [B,DG]2 | z/ B,/__E/G/ B/G/ g/B/ z/ D/G/B,/ z/ G,/B,/D/ | %93
[M:2/4] z/ B,/__E/G/ x2 |[M:4/4] z/ B,/G/B/ F2 z/ G/-B/-d/- [GBd]2 | d/A/B/d/ x2 z/ B/d/g/ x2 | %96
 x8 | z [B=d]2 x!>(! e4!>)! | x6 z/ C/E/!ppp!!tenuto!__B,/ | %99
[M:3/4] z/ A/F,/A,/ z/ F/A/D/ z/ A,/D/F,/ | z/ _C/_F/_c/ z/ F/c/_f/ x2 | %101
 z/ F,/A,/E/ z/ F/-A/-D/- [DFA]2 | x6 | x6 | x6 | x6 |!8va(! _f'2 d'4!8va)! | _f2 d4 | x6 | x6 |] %110
V:4
 x2 | !>!A,,,8 | !>![D,,,D,,]8 | !>![E,,,E,,]4 !>!A,,,4 | !>![E,,,E,,]8 | !>!A,,,8 | %6
 !>![D,,,D,,]8 | !>!=G,,,4 !>!A,,,4 | [=G,,,=G,,]6[K:treble] x2 | %9
[K:bass] z2 x2 [B,,A,]2 _B,/A,/F,/=D,/ | z2 _B,,2 =G,2 B,2 | F2 E/D/C/B,/ D2 C/B,/A,/G,/ | %12
 z2 G,2 __E2 =A,2 ||[K:D] !>!A,,,4 !>!D,,4 | !>!^G,,6 x2 | x4 [E,G,B,]2 z2 | !>![D,,,D,,]8 | %17
 z/ ^D,/F,/A,/ B,C ^D2 C2 | =D,2 F,/^G,/A,/B,/ C2 B,2 | z/ D,/F,/^A,/ F,A, D2 F2 | %20
 z/ D,/F,/^A,/ x2 =A,2 z/ D,/F,/=A,/ | z/ D,/F,/^A,/ F,A, D2 F2 | z/ D,/F,/^A,/ =D/F/^A/F/ B,4 | %23
 z A,, F,2 A,2 ^G,/F,/E,/D,/ | z B,, A,2 !>!E2 D/C/B,/A,/ | %25
 x (9:8:9D,/8F,/8^A,/8D/8[I:staff -1]F/8^A/8 d/8f/8^a/8[K:treble][I:staff +1] !>!f'2 B2[K:bass] B,2 | %26
 z/!>(! D,/F,/^A,/ D2 ^A2 F2!>)! | z/ E,,/D,/F,/ ^A,2 =A,2 ^E,2 |[M:3/4] !>![A,,,A,,]6 | %29
 D,2 =F,2 ^G,2 |[M:4/4] A,,A,,/A,,/ C,C,/C,/ A,,A,,/A,,/ =C,,C,,/C,,/ | %31
[M:3/4] A,,,A,,,/A,,,/ A,,A,,/A,,/ =C,C,/C,/ | x6 | x6 | x6 | x6 ||[K:Db] D,2 D,,2 x2 | %37
 x4[K:treble] x2 | x6 | x4[K:bass] x2 | !>![E,,,E,,]6[K:treble] | x6 |[K:bass] !>![A,,,A,,]6 | %43
 !>!D,,6 | !>![E,,,E,,]6[K:treble] | x2[K:bass] E,2 E,,2 | [A,,,A,,]6- | [A,,,A,,]4 F,/A,/D/F/ | %48
 z/ D,/=E,/=G,/ B,/D/=E/=G/[K:treble] x2 | x6 ||[K:E] x6 | x6 |[K:bass] !>![F,,,F,,]6- | %53
 [F,,,F,,]6 | x2 B,,4 | [E,,,E,,]4 [C,,,C,,]2 | [F,,,F,,]6- | [F,,,F,,]6[K:treble] | %58
[K:bass] B,,,B,,- B,,4 |[K:treble] x6 |[M:5/4][K:bass] !>!G,,6 !>!F,,4 | !>!G,,6 !>!A,,4 | %62
[M:4/4] !>![=D,,,=D,,]6 C,2- |[M:3/4] C,6 | x4[K:treble] x2 | x6 | %66
[K:bass] F,/=G,/E,/F,/ C,/E,/^A,,/C,/ G,,/=G,,/E,,/C,,/ |[M:4/4] A,,,4 =D,,2 [G,,,G,,]2 | %68
[M:3/4] C,,4 x2 | x6 | x6 ||[K:C][K:treble] x6 | x6 | x2[K:bass] x2[K:treble] x2 | %74
 x121/60[K:bass] x4 | x2 D,,4- | D,,6 | !>![^G,,,^G,,]6- | [G,,,G,,]6 ||[M:4/4] !>!=G,,,8 | %80
 !>![C,,,C,,]8 | !>![D,,,D,,]4 !>!G,,,4 | !>!D,,8 | !>![G,,,G,,]8 | !>![_B,,,,_B,,,]8 | %85
 !>![_E,,,_E,,]8 | !>![_A,,,_A,,]6 A,,2 ||[K:Db] !>!D,,8 | z2 D,2 B,4 | !>![B,,E,]8 | B,,4- B,,4 | %91
 !>![A,,,A,,]4 [G,B,]4 | !>![A,,,A,,]4 x4 |[M:2/4] !>![A,,,A,,]4 |[M:4/4] !>![G,,,G,,]8 | %95
 !>![E,,,E,,]8[K:treble] | %96
[K:bass] x (9:8:9__E,/8G,/8B,/8__E/8[I:staff -1]G/8B/8 __e/8g/8b/8[K:treble][I:staff +1] !>!f'2 B2 [EG]2 | %97
[K:bass] [A,,,A,,]8 | !>![A,,,A,,]6[K:treble][K:bass] A,,2 |[M:3/4] x4 F,2 | [A,,,A,,]6[K:treble] | %101
[K:bass] x4 F,2- | F,6 | [G,,D,]4 [__B,,E,]2 | x6 |[K:treble] x6 | d2 _f4 | __A6 | %108
[K:bass] z2 [D,,A,,]4 |[K:treble] x6 |] %110
V:5
 x2 | x4 [E,G,B,]2 x2 | x8 | x2 [B,,E,]2 x4 | x8 | x4 [E,G,B,]2 x2 | x8 | x8 | x4[K:treble] x4 | %9
[K:bass] !>!A,,,4 x4 | !>![E,,,E,,]8 | [_G,B,]4 E,4 | !>![A,,,A,,]6 x2 ||[K:D] x8 | x8 | !>!A,,,8 | %16
 x8 | ^D,2 x2 x4 | F,,8 | !>!E,,,4 !>!=A,4 | !>!E,,8 | !>!E,,,4 !>!=A,4 | E,,8 | !>![D,,,D,,]8 | %24
 !>![B,,,,B,,,]8 | !>![E,,,E,,]6[K:treble][K:bass] x2 | !>!E,,8 | !>!E,,,8 |[M:3/4] x2 !>!E,,4- | %29
 [E,,A,,]6 |[M:4/4] x8 |[M:3/4] x6 | x6 | x6 | x6 | x4 x _D/_A,/ ||[K:Db] x6 | x4[K:treble] x2 | %38
 x6 | x4[K:bass] x2 | x4[K:treble] x2 | x6 |[K:bass] x2 [A,,G,]4 | x6 | x4[K:treble] [EAd]2 | %45
 x2[K:bass] x4 | x6 | x6 | D,,4[K:treble] x2 | x6 ||[K:E] x6 | x6 |[K:bass] x6 | x6 | x6 | x6 | %56
 x6 | x4[K:treble] x2 |[K:bass] x6 |[K:treble] x6 |[M:5/4][K:bass] x2 [E,=G,]4 x4 | %61
 x2 [E,=G,]4 x2 x2 |[M:4/4] x8 |[M:3/4] x6 | x4[K:treble] x2 | x6 |[K:bass] x6 |[M:4/4] x8 | %68
[M:3/4] x6 | x6 | x6 ||[K:C][K:treble] x6 | x6 | x2[K:bass] x2[K:treble] x2 | x121/60[K:bass] x4 | %75
 x6 | x6 | z2 D,4 | z2 !>!^G,2 !>!D,2 ||[M:4/4] x8 | x8 | x8 | x6 z D, | x8 | x6 _B,,2 | x8 | %86
 x2 z/ _G,/_B,/_E/ x4 ||[K:Db] x8 | [G,,,G,,]8 | x8 | x4 G,2 =D,2 | x8 | x8 |[M:2/4] x4 | %94
[M:4/4] x8 | x4[K:treble] x4 |[K:bass] !>![A,,,A,,]4[K:treble] x2 x2 |[K:bass] x8 | %98
 x127/64[K:treble] x2[K:bass] x4 |[M:3/4] !>![D,,,D,,]6 | x4[K:treble] x2 |[K:bass] !>!D,,6 | x6 | %103
 x6 | x6 |[K:treble] x6 | x6 | x6 |[K:bass] x2 F,4 |[K:treble] x6 |] %110
V:6
 x2 | x8 | x8 | x8 | x8 | x8 | x8 | x4 c2 x2 | x8 | x8 | x8 | x8 | x8 || %13
[K:D] x4 z/ C/F/A,/ z/ C/F/A,/ | x8 | x8 | x8 | x8 | x8 | x8 | x8 | x8 | x8 | x8 | x8 | x8 | x8 | %27
 x8 |[M:3/4] x6 | x6 |[M:4/4] x8 |[M:3/4] x6 | x6 | x6 | x6 | x6 ||[K:Db] x6 | x6 | x6 | x6 | x6 | %41
 x6 | x6 | x6 | x6 | x6 | x6 | x6 | x6 | x6 ||[K:E] x6 | x6 | x4 A2- | !>!f'4 x2 | x6 | x6 | x6 | %57
 x6 | x2 !>![ee']2 x2 | x6 |[M:5/4] x10 | x10 |[M:4/4] x8 |[M:3/4] x6 | x6 | x6 | x6 |[M:4/4] x8 | %68
[M:3/4] x6 | x6 | x6 ||[K:C] x6 | x6 | x6 | x71/15!8va(! x77/60!8va)! | x6 | x6 | x6 | x6 || %79
[M:4/4] x8 | x8 | x8 | x8 | x2 B2 x4 | x8 | x8 | x8 ||[K:Db] x8 | x8 | x8 | %90
 x4 z/!>(! B,/-D/G,/-!>)! [G,B,]2 | x8 | x8 |[M:2/4] x4 |[M:4/4] x8 | x8 | x8 | x8 | x8 | %99
[M:3/4] x6 | x6 | x6 | x6 | x6 | x6 | x6 |!8va(! x6!8va)! | x6 | x6 | x6 |] %110
V:7
 x2 | x8 | x8 | x8 | x8 | x8 | x8 | x8 | x4[K:treble] x4 |[K:bass] x8 | x8 | x8 | x8 ||[K:D] x8 | %14
 x8 | x8 | x8 | !>!F,,8 | x8 | x8 | x6 B,,2 | x8 | x8 | x8 | x8 | x2[K:treble] x4[K:bass] x2 | x8 | %27
 x8 |[M:3/4] x4 !>!A,,2- | x6 |[M:4/4] x8 |[M:3/4] x6 | x6 | x6 | x6 | x6 ||[K:Db] x6 | %37
 x4[K:treble] x2 | x6 | x4[K:bass] x2 | x4[K:treble] x2 | x6 |[K:bass] x6 | x6 | x4[K:treble] x2 | %45
 x2[K:bass] x4 | x6 | x6 | x4[K:treble] x2 | x6 ||[K:E] x6 | x6 |[K:bass] x6 | x6 | x6 | x6 | x6 | %57
 x4[K:treble] x2 |[K:bass] x6 |[K:treble] x6 |[M:5/4][K:bass] x10 | x10 |[M:4/4] x8 |[M:3/4] x6 | %64
 x4[K:treble] x2 | x6 |[K:bass] x6 |[M:4/4] x8 |[M:3/4] x6 | x6 | x6 ||[K:C][K:treble] x6 | x6 | %73
 x2[K:bass] x2[K:treble] x2 | x121/60[K:bass] x4 | x6 | x6 | x6 | x6 ||[M:4/4] x8 | x8 | x8 | x8 | %83
 x8 | x8 | x8 | x8 ||[K:Db] x8 | x8 | x8 | x8 | x8 | x8 |[M:2/4] x4 |[M:4/4] x8 | x4[K:treble] x4 | %96
[K:bass] x2[K:treble] x6 |[K:bass] x8 | x127/64[K:treble] x2[K:bass] x4 |[M:3/4] x6 | %100
 x4[K:treble] x2 |[K:bass] x6 | x6 | x6 | x6 |[K:treble] x6 | x6 | x6 |[K:bass] x6 | %109
[K:treble] x6 |] %110

